X: 578
T: Dinle Cânım Zevk ile
C: Ahmet Avni Konuk
O: Turkey
F: http://compmusic.upf.edu/node/140
N: neveser--kupe--devrirevanihindi--dinle--ahmet_avni_konuk
N: makam= neveser
N: form= kupe
N: usul= devrirevanihindi = 14/8
M: 14/8
L: 1/16
K: C _7/8B _7/8e ^f ^c
Q: 1/4=102
%%MIDI tuningsystem comma53
d4 d2fe edd2 c2d2 e2f2 agfe fed2  | \
w:  Din le  câ *  *  *  *  *  nım   | 
a4 g2f2 {g}fee2 eddc B2c2 d6z2  | 
w:  zevk  i le  *  *  *  *  *  *  bir   | 
d4 d2c2 d2e2 {f}edd4c2 cBBA G4  | \
w:  dil kû şâ *  *  *  *  *  dır   | 
d2e2 d2ag fef2 edd2 cdee/d/ d6z2  | 
w:  Nev *  *  *  *  *  *  e *  *  ser    | 
d2g2 g2g2 fag4f2 g2a2 _b2ba gfe2  | \
w:  Hüsn_ *  ü  te' *  *  *  sî  | 
g4 _b2a2 g2f2 e2d4d2 dedc BAG2  | 
w:  ri  gö nül *  *  *  ler  | 
=c4 c2c2 _e2d2 c2_B2 A2B2 dcBA G2z2  | \
w:  de  u zun  *  *  *  müd  | 
ABAB AGAc BAAG GFG2 F2AG G6z2  | 
w:  det  *  *  *  *  *  *  *  *  *  ge *  *  *  zer    | 
|


